X:0211
T:Tadie's Wattle.
M:C|
L:1/8
Q:1/2=104
I: :: ::
Z:Jack Campin * www.campin.me.uk * 2009
K:G
G2BG    BddB|cBcd efg2|G2BG    Bdge|dcBG TA2G2:|
g2ag/a/ bggd|edef gdBG|g2ag/a/ bggd|edcB  B2A2 |
bgaf    gfed|egfa gdBG|GBAc    Bdge|dcBG TA2G2:|

